app/client/src/assets/icons/blueprintjs/16px/widget-button.svg

<svg xmlns="http://www.w3.org/2000/svg" xml:space="preserve" viewBox="0 0 16 16"><path d="M1 3h14c.55 0 1 .45 1 1v8c0 .55-.45 1-1 1H1c-.55 0-1-.45-1-1V4c0-.55.45-1 1-1zm1 2v6h12V5H2zm3 4c-.55 0-1-.45-1-1s.45-1 1-1 1 .45 1 1-.45 1-1 1zm3 0c-.55 0-1-.45-1-1s.45-1 1-1 1 .45 1 1-.45 1-1 1zm3 0c-.55 0-1-.45-1-1s.45-1 1-1 1 .45 1 1-.45 1-1 1z"/></svg>

<?xml version="1.0" encoding="utf-8"?>
<!-- Generator: Adobe Illustrator 18.0.0, SVG Export Plug-In . SVG Version: 6.00 Build 0)  -->
<svg version="1.1" id="Layer_1" xmlns="http://www.w3.org/2000/svg" xmlns:xlink="http://www.w3.org/1999/xlink" x="0px" y="0px"
	 viewBox="0 0 16 16" enable-background="new 0 0 16 16" xml:space="preserve">
<g id="button_1_">
	<g id="pt-icon-button-widget-16">
		<path id="Combined-Shape_13_" d="M1,3h14l0,0c0.55,0,1,0.45,1,1v8c0,0.55-0.45,1-1,1H1c-0.55,0-1-0.45-1-1V4l0,0
			C0,3.45,0.45,3,1,3L1,3z M2,5v6h12V5H2z M5,9C4.45,9,4,8.55,4,8s0.45-1,1-1s1,0.45,1,1S5.55,9,5,9z M8,9C7.45,9,7,8.55,7,8
			s0.45-1,1-1s1,0.45,1,1S8.55,9,8,9z M11,9c-0.55,0-1-0.45-1-1s0.45-1,1-1s1,0.45,1,1S11.55,9,11,9z"/>
	</g>
</g>
</svg>
